X:0599
T:Gibralter Balloons
M:6/8
L:1/8
Q:3/8=120
I: :: ::
Z:Jack Campin * www.campin.me.uk * 2009
K:D
dcd A2d|efg f2g|afd bc'd'|afd e2f|\
dcd D2f|E2g F2a|G2b agf  |ede d3:|
faf gbg|ege faf|dfd ege  |fed cBA|\
dcd A2d|efg f2a|G2g afd  |ede d3:|

